X:1

T:Whitsatble, The

M:C

L:1/8

R:Hornpipe

S:Kerr – Merry Melodies, vol. 3, No. 344  (c. 1880’s)

Z:AK/Fiddler’s Companion

K:G

(Bc) | d>ba>g f>ge>f | d>ec>d B>cA>B | G>AB>c d>ef>g | a>^ga>b a2 (Bc) |

d>ec>d B>cA>B | G>AB>c d>ef>g | G>Bd>g f>ga>f | g2b2g2 :: a>g | f>ge>f d>ec>d |

B>cd>e d2 a>g | f>ge>f d>ec>d | B>cd>e d2 d>c | B>cd>e f>ga>f | g>fg>a b>ag>f |

e>^de>f a>gf>e | d>^cd>e d2 :: (3ddd | d2 (3ddd d2 (3ddd | d2 (d’d) c’dbd |

adbd c’dbd |1 a2 (3d’d’d’ d’2 :|2 a6 ||

 

WHITTINGHAM FAIR. AKA and see "Parsley, Sage, Rosemary, and Thyme." English, Air (6/8 time). England, Northumberland. E Minor. Standard tuning. One part. "This is another example of the enigmatically duolinear ballad, and popular in the north and west of the county of Northumberland; it is also known in several parts of England, but is sung usually as a nursery ballad" (Bruce & Stokoe). It is a variant of the better-known “Scarborough Fair,” however, both songs derived from the Child Ballad No 2., “The Elfin Knight.” “Whittingham” is pronounced ‘Whitting-jum’, and is a village in Northumberland, about 20 miles south of the Scottish border. It was is the site for the Whittingham Show, also called the Whittingham Games or Whittingham Fair, a country fair (held on the third week of August) that goes back many hundreds of years.

***

Are you going to Whittingham Fair,

Parsley, sage, rosemary and thyme;

Remember me to one who lives there,

For once she was a true love of mine. (Bruce & Stokoe)

***

Bruce & Stokoe (Northumbrian Minstrelsy), 1882; pgs. 81‑82.

